static/images/mainTabs4.svg

<svg height="86" viewBox="0 0 66 86" width="66" xmlns="http://www.w3.org/2000/svg"><path d="m160.313046 221.246094h-10.3125v17.753906h-17.695312v-17.753906h-36.5625001v-12.597656l37.5585941-55.3125h16.699218v53.847656h10.3125zm-28.007812-14.0625v-14.53125c0-2.421887.097655-5.937477.292969-10.546875.195313-4.609398.351562-7.285153.46875-8.027344h-.46875c-1.44532 3.203141-3.183584 6.32811-5.214844 9.375l-15.703125 23.730469z" fill="#caf4ff" fill-rule="evenodd" opacity=".4" transform="translate(-95 -153)"/></svg>

<?xml version="1.0" encoding="UTF-8"?>
<svg width="66px" height="86px" viewBox="0 0 66 86" version="1.1" xmlns="http://www.w3.org/2000/svg" xmlns:xlink="http://www.w3.org/1999/xlink">
    <!-- Generator: Sketch 46.2 (44496) - http://www.bohemiancoding.com/sketch -->
    <title>4</title>
    <desc>Created with Sketch.</desc>
    <defs></defs>
    <g id="Page-1" stroke="none" stroke-width="1" fill="none" fill-rule="evenodd" opacity="0.400000006">
        <g id="Home-Page-10/04/2017-screen-Shere-Rakam" transform="translate(-294.000000, -1023.000000)" fill="#CAF4FF">
            <g id="How-Rakam-Works" transform="translate(160.000000, 757.000000)">
                <g id="create-a-project" transform="translate(39.000000, 113.000000)">
                    <path d="M160.313046,221.246094 L150.000546,221.246094 L150.000546,239 L132.305234,239 L132.305234,221.246094 L95.7427339,221.246094 L95.7427339,208.648438 L133.301328,153.335938 L150.000546,153.335938 L150.000546,207.183594 L160.313046,207.183594 L160.313046,221.246094 Z M132.305234,207.183594 L132.305234,192.652344 C132.305234,190.230457 132.402889,186.714867 132.598203,182.105469 C132.793516,177.496071 132.949765,174.820316 133.066953,174.078125 L132.598203,174.078125 C131.152883,177.281266 129.414619,180.406235 127.383359,183.453125 L111.680234,207.183594 L132.305234,207.183594 Z" id="4"></path>
                </g>
            </g>
        </g>
    </g>
</svg>
